img/services/Furnitures.svg

<svg width="119" height="122" viewBox="0 0 119 122" fill="none" xmlns="http://www.w3.org/2000/svg">
<path d="M102.09 82.4421C101.579 79.1973 99.9228 76.2428 97.421 74.1143C94.9192 71.9858 91.7377 70.824 88.4529 70.8396C81.8366 70.8396 75.9631 75.9276 74.977 82.5144C74.5662 85.1668 74.8258 87.8324 74.7798 90.4882C74.7798 91.208 74.6253 91.4052 73.8956 91.2113C69.3776 90.0478 64.7659 89.2845 60.114 88.9302C52.6398 88.2839 45.1176 88.4459 37.6782 89.4134C34.5499 89.7888 31.4532 90.3919 28.4127 91.2178C27.7093 91.4183 27.4924 91.2179 27.5318 90.4882C27.591 89.3444 27.5318 88.1874 27.5318 87.0469H27.5088C27.5088 85.982 27.5515 84.9137 27.5088 83.8521C27.1407 75.3918 18.8184 69.1831 10.6047 71.2209C7.55137 71.9485 4.83715 73.6949 2.90961 76.1721C0.982067 78.6493 -0.043707 81.7095 0.00142832 84.848C0.0517971 87.9645 1.1614 90.971 3.14766 93.373C5.13391 95.7751 7.87853 97.4295 10.9301 98.0643C11.6828 98.2286 11.8241 98.4949 11.811 99.1687C11.7781 101.423 11.7913 103.678 11.811 105.933C11.8274 110.314 14.5817 113.493 18.9072 114.071C19.5646 114.157 19.7059 114.331 19.6895 114.939C19.6533 116.536 19.6632 118.134 19.6895 119.734C19.6895 121.253 20.4323 121.976 21.964 121.992C23.683 121.992 25.4052 121.963 27.1242 121.992C28.3009 122.022 29.0372 121.522 29.5335 120.477C30.4308 118.597 31.407 116.753 32.3075 114.889C32.3896 114.644 32.5525 114.433 32.7698 114.291C32.9871 114.15 33.2458 114.086 33.504 114.111C45.2642 114.13 57.0244 114.13 68.7846 114.111C69.5011 114.111 69.7707 114.406 70.0599 114.965C70.9835 116.878 71.9498 118.771 72.8833 120.678C73.0613 121.092 73.3637 121.442 73.7488 121.677C74.1338 121.913 74.5825 122.023 75.0329 121.992C76.834 121.973 78.6484 121.992 80.4397 121.992C81.8793 121.973 82.6155 121.23 82.6386 119.78C82.6616 118.222 82.6648 116.664 82.6386 115.11C82.6386 114.469 82.6681 114.16 83.4964 114.058C87.674 113.539 90.4809 110.308 90.5137 106.101C90.5335 103.8 90.5466 101.499 90.5137 99.1982C90.5137 98.4521 90.7011 98.2122 91.4768 98.0347C94.9068 97.2906 97.9203 95.258 99.8952 92.3565C101.87 89.455 102.656 85.906 102.09 82.4421ZM27.19 116.372C26.7463 117.844 25.8095 118.285 24.3568 118.084C23.8243 118.012 23.6073 117.966 23.581 117.348C23.4496 114.124 23.4266 114.127 26.6378 114.127H28.2812C27.8473 114.988 27.4102 115.645 27.19 116.372ZM78.6944 114.794C78.6516 115.238 78.6944 115.691 78.6944 116.142C78.6944 118.219 78.6944 118.203 76.5645 118.071C76.3856 118.088 76.2061 118.046 76.0532 117.952C75.9002 117.857 75.7821 117.716 75.7165 117.549C75.3649 116.77 74.9507 116.02 74.5662 115.248C74.4084 114.919 74.2572 114.59 74.0304 114.12C75.4799 114.12 76.7453 114.143 78.0107 114.12C78.5268 114.101 78.7371 114.242 78.6944 114.811V114.794ZM88.9032 94.4389C87.1974 94.531 86.563 95.1785 86.5597 96.8876C86.5597 99.8457 86.5597 102.804 86.5597 105.742C86.5597 108.681 85.0051 110.186 82.0601 110.189H20.3304C17.2408 110.189 15.7289 108.681 15.7289 105.588C15.7289 102.718 15.7289 99.849 15.7289 96.9796C15.7289 95.162 15.1241 94.5244 13.359 94.4324C10.7719 94.3186 8.33343 93.1917 6.57024 91.2951C4.80706 89.3985 3.86077 86.8843 3.93578 84.2958C4.0541 79.0369 8.50771 74.7641 13.8554 74.7641C16.424 74.7871 18.8815 75.8152 20.7013 77.6282C22.5211 79.4412 23.5584 81.8949 23.5909 84.4634C23.6304 86.922 23.5909 89.3937 23.6139 91.8424C23.6498 92.0771 23.5955 92.3166 23.462 92.513C23.3284 92.7093 23.1256 92.8478 22.8941 92.9007C21.7437 93.3181 20.6295 93.8342 19.4857 94.2713C18.8579 94.5145 18.6739 94.7873 19.0979 95.4151C19.6435 96.2237 19.9064 97.4727 20.6394 97.8408C21.3723 98.2089 22.3781 97.2656 23.2688 96.9271C29.0536 94.7512 35.0586 93.5745 41.1852 92.9566C47.7945 92.2861 54.4546 92.2861 61.0639 92.9566C67.8479 93.6501 74.4971 94.9287 80.7848 97.7093C81.5145 98.038 81.8793 97.9854 82.1587 97.2459C82.2931 96.9477 82.4514 96.6608 82.632 96.388C83.618 94.6099 83.618 94.6099 81.7084 93.7783C81.6328 93.7454 81.5539 93.7191 81.4783 93.6895C80.5744 93.3214 79.2597 93.1965 78.8686 92.526C78.3986 91.7273 78.6714 90.4619 78.701 89.4035C78.7568 87.2342 78.4873 85.0584 78.8916 82.9022C79.8447 77.8372 84.4561 74.2973 89.4488 74.7904C91.9432 75.0313 94.2523 76.2129 95.9068 78.0951C97.5613 79.9774 98.437 82.4189 98.3561 84.9236C98.2695 87.4084 97.2474 89.7687 95.4946 91.5319C93.7417 93.2951 91.3874 94.3311 88.9032 94.4324V94.4389Z" fill="#5C5C5C"/>
<path d="M118.034 8.45916C118.034 3.29886 114.747 0.0120517 109.597 0.00876484C99.1844 0.00876484 88.7761 0.00876484 78.3723 0.00876484C70.6252 0.00876484 62.8782 -0.0109561 55.1345 0.00876484C53.169 -0.000597386 51.2709 0.724106 49.8118 2.04095C48.3527 3.35779 47.4377 5.17191 47.2461 7.12801C46.993 9.83963 46.9963 9.75746 49.6751 9.8725C50.9043 9.9218 51.2363 9.60956 51.1903 8.36385C51.0917 5.53062 52.7351 3.93979 55.5486 3.93979C63.5421 3.93979 71.5324 3.95952 79.5259 3.91021C80.5448 3.91021 80.6895 4.2389 80.6862 5.1362C80.6599 17.6261 80.6533 30.127 80.6665 42.6388C80.6665 45.2682 80.6665 45.1828 83.3386 45.2912C84.4989 45.3372 84.6271 44.933 84.6238 43.9305C84.5909 31.0199 84.6238 18.1093 84.5811 5.19865C84.5811 4.22904 84.729 3.90035 85.8037 3.90692C93.7546 3.9628 101.705 3.93651 109.656 3.93979C112.562 3.93979 114.11 5.50103 114.11 8.42629C114.11 40.8562 114.11 73.2785 114.11 105.693C114.11 108.628 112.572 110.18 109.656 110.183H95.1482C92.4661 110.183 92.5023 110.183 92.453 112.921C92.453 113.818 92.5844 114.262 93.6132 114.14C94.4645 114.038 95.3355 114.166 96.1934 114.104C96.4903 114.052 96.7961 114.108 97.055 114.262C97.3139 114.417 97.5086 114.659 97.6034 114.945C98.5007 116.871 99.4867 118.755 100.42 120.661C100.594 121.079 100.895 121.433 101.28 121.672C101.665 121.911 102.114 122.024 102.567 121.996C104.328 121.973 106.093 121.996 107.855 121.996C109.449 121.979 110.156 121.263 110.175 119.655C110.195 118.048 110.175 116.457 110.175 114.86C110.175 114.42 110.175 114.176 110.784 114.084C115.52 113.361 118.051 110.383 118.051 105.604C118.051 89.4134 118.051 73.2237 118.051 57.035C118.051 40.8464 118.045 24.6544 118.034 8.45916ZM106.238 114.893C106.202 115.3 106.238 115.711 106.238 116.119C106.238 118.203 106.238 118.183 104.131 118.091C103.932 118.101 103.735 118.047 103.57 117.936C103.405 117.826 103.28 117.664 103.214 117.476C102.714 116.411 102.169 115.369 101.571 114.137C103.017 114.137 104.282 114.173 105.548 114.137C106.162 114.084 106.287 114.347 106.238 114.893Z" fill="#5C5C5C"/>
<path d="M14.4503 41.3274C19.0518 41.3274 23.627 41.3274 28.2154 41.3274C29.2672 41.3274 30.6214 40.8771 31.2919 41.5081C31.9065 42.0899 31.4661 43.4474 31.4497 44.4663C31.4497 45.1236 31.6469 45.3274 32.2779 45.2683C33.287 45.1729 34.6214 45.689 35.2163 45.0645C35.7159 44.5353 35.4431 43.2041 35.384 42.2378C35.3347 41.4523 35.6009 41.2945 36.3404 41.3043C39.0849 41.3504 41.8294 41.3241 44.5575 41.3241H52.3012C54.5822 41.3241 55.2035 40.6108 55.0063 38.3134C54.373 30.929 53.7452 23.5424 53.1229 16.1536C52.9717 14.3656 52.367 13.7806 50.5625 13.7773C46.5493 13.7773 42.5328 13.7773 38.5163 13.7773C37.5073 13.7773 36.1728 14.2177 35.5779 13.5932C35.0783 13.0673 35.3511 11.7362 35.4103 10.7666C35.4563 9.98429 35.1999 9.76079 34.4538 9.84296C33.4908 9.94814 32.2089 9.44196 31.637 10.0435C31.1571 10.5496 31.4069 11.8282 31.4759 12.7518C31.545 13.6754 31.236 13.8167 30.3946 13.8069C25.6419 13.7641 20.8891 13.7838 16.1364 13.7904C14.5982 13.7904 13.8619 14.4116 13.7436 15.8151C13.0862 23.4033 12.4453 30.9936 11.8208 38.5862C11.686 40.5812 12.3927 41.3241 14.4503 41.3274ZM15.9688 36.2755C16.5012 30.322 16.9953 24.3641 17.4511 18.4018C17.5136 17.6261 17.9441 17.7149 18.4372 17.7149H26.4241C33.6748 17.7149 40.9255 17.7149 48.1763 17.6919C49.1064 17.6919 49.3825 17.9055 49.4548 18.8751C49.8777 24.5942 50.3576 30.3067 50.8945 36.0126C50.9931 37.0972 50.7761 37.4358 49.6027 37.4193C44.1992 37.347 38.7891 37.3865 33.3823 37.3865C27.9755 37.3865 22.4865 37.3635 17.0403 37.4128C16.1002 37.4226 15.8833 37.2024 15.9589 36.2755H15.9688Z" fill="#5C5C5C"/>
<path d="M11.9753 66.7245C12.567 67.3162 13.8422 66.81 14.8086 66.9152C15.5777 67.0039 15.765 66.7344 15.7519 65.9784C15.7026 63.109 15.7223 60.2397 15.7519 57.3735C15.7519 54.7901 17.3953 53.1368 19.959 53.1368C40.7755 53.1368 61.592 53.1368 82.4085 53.1368C84.9065 53.1368 86.5466 54.7803 86.5663 57.3012C86.5663 59.556 86.5663 61.8075 86.5663 64.0622C86.5663 66.9382 86.5663 66.9086 89.5047 66.925C90.287 66.925 90.5401 66.7508 90.5236 65.939C90.4678 63.1945 90.5039 60.4467 90.5007 57.7022C90.5007 52.4696 87.2138 49.2091 81.9845 49.2058H51.1279C40.6758 49.2058 30.2259 49.2058 19.7782 49.2058C15.2654 49.2058 11.857 52.634 11.811 57.1303C11.7869 59.3851 11.7869 61.6398 11.811 63.8946C11.8143 64.8511 11.387 66.1329 11.9753 66.7245Z" fill="#5C5C5C"/>
<path d="M43.2757 62.9348C43.2757 61.0022 43.2757 61.0022 41.3956 61.0022C39.3414 61.0022 39.3414 61.0022 39.3414 63.0039C39.3414 64.9365 39.3414 64.9365 41.2181 64.9365C43.2757 64.9365 43.2757 64.9365 43.2757 62.9348Z" fill="#5C5C5C"/>
<path d="M60.8667 61.0022C59.0129 61.0022 59.0129 61.0022 59.0129 62.8362C59.0129 64.9365 59.0129 64.9365 61.0935 64.9365C62.9472 64.9365 62.9472 64.9365 62.9472 63.1025C62.9604 61.0022 62.9604 61.0022 60.8667 61.0022Z" fill="#5C5C5C"/>
<path d="M29.5039 72.7098C29.5039 74.7739 29.5039 74.7739 31.4957 74.7739C33.4875 74.7739 33.4383 74.7739 33.4383 72.7821C33.4383 70.8396 33.4382 70.8396 31.4431 70.8396C29.5039 70.8396 29.5039 70.8396 29.5039 72.7098Z" fill="#5C5C5C"/>
<path d="M49.1755 72.9201C49.1755 74.7739 49.1755 74.7739 51.0095 74.7739C53.1098 74.7739 53.1098 74.7739 53.1098 72.6934C53.1098 70.8396 53.1098 70.8396 51.2757 70.8396C49.1754 70.8396 49.1755 70.8396 49.1755 72.9201Z" fill="#5C5C5C"/>
<path d="M68.8503 72.6671C68.8503 74.7739 68.8503 74.7739 70.921 74.7739C72.7846 74.7739 72.7847 74.7739 72.7847 72.9497C72.7847 70.8396 72.7846 70.8396 70.7139 70.8396C68.8503 70.8396 68.8503 70.8396 68.8503 72.6671Z" fill="#5C5C5C"/>
<path d="M41.3035 84.6114C43.2756 84.6114 43.2756 84.6114 43.2756 82.6393C43.2756 80.6672 43.2756 80.6672 41.3035 80.6672C39.3314 80.6672 39.3314 80.6672 39.3314 82.6393C39.3314 84.6114 39.3413 84.6114 41.3035 84.6114Z" fill="#5C5C5C"/>
<path d="M61.0836 80.677C59.013 80.677 59.0129 80.677 59.0129 82.7871C59.0129 84.6113 59.013 84.6113 60.8766 84.6113C62.9473 84.6113 62.9472 84.6113 62.9472 82.5045C62.9604 80.677 62.9604 80.677 61.0836 80.677Z" fill="#5C5C5C"/>
<path d="M13.7535 78.7117C12.9743 78.7155 12.2036 78.8733 11.4855 79.1758C10.7675 79.4784 10.1163 79.9198 9.56933 80.4747C9.02235 81.0296 8.59035 81.6871 8.29818 82.4094C8.00601 83.1318 7.85941 83.9047 7.86678 84.6838C7.89094 86.2369 8.52489 87.7182 9.6318 88.8079C10.7387 89.8976 12.2298 90.5082 13.783 90.5081C14.5622 90.5042 15.333 90.3465 16.051 90.0439C16.769 89.7414 17.4202 89.3 17.9672 88.745C18.5142 88.1901 18.9461 87.5326 19.2383 86.8103C19.5305 86.088 19.6771 85.3151 19.6697 84.5359C19.6456 82.9828 19.0116 81.5015 17.9047 80.4119C16.7978 79.3222 15.3068 78.7115 13.7535 78.7117ZM13.8356 86.577C13.5712 86.5858 13.3076 86.5413 13.0607 86.4462C12.8138 86.351 12.5886 86.2072 12.3985 86.0232C12.2083 85.8392 12.0571 85.6188 11.954 85.3751C11.8508 85.1315 11.7977 84.8695 11.7978 84.6049C11.8038 84.0893 12.0115 83.5965 12.3765 83.2322C12.7414 82.8679 13.2345 82.661 13.7502 82.6558C14.2648 82.6557 14.7591 82.8567 15.1275 83.2159C15.496 83.5752 15.7094 84.0642 15.7223 84.5786C15.7296 85.0917 15.5366 85.5875 15.1844 85.9606C14.8321 86.3337 14.3483 86.5548 13.8356 86.577Z" fill="#5C5C5C"/>
<path d="M88.558 78.7117C87.0081 78.7114 85.52 79.3193 84.4136 80.4048C83.3073 81.4903 82.6711 82.9666 82.6418 84.5162C82.6318 85.2951 82.7757 86.0682 83.0653 86.7913C83.3548 87.5145 83.7844 88.1733 84.3292 88.73C84.874 89.2867 85.5233 89.7303 86.24 90.0355C86.9567 90.3406 87.7265 90.5012 88.5054 90.5081C90.0745 90.5081 91.5794 89.8847 92.6889 88.7752C93.7984 87.6657 94.4217 86.1609 94.4217 84.5918C94.4123 83.038 93.792 81.5504 92.6949 80.4501C91.5977 79.3499 90.1118 78.7255 88.558 78.7117ZM88.581 86.577C88.3154 86.5841 88.0512 86.5375 87.804 86.4399C87.5569 86.3423 87.332 86.1958 87.1429 86.0092C86.9538 85.8226 86.8044 85.5996 86.7036 85.3538C86.6028 85.108 86.5528 84.8443 86.5564 84.5786C86.5659 84.0619 86.7778 83.5695 87.1466 83.2075C87.5154 82.8454 88.0117 82.6426 88.5285 82.6427C89.0453 82.6426 89.5415 82.8454 89.9103 83.2075C90.2791 83.5695 90.4911 84.0619 90.5006 84.5786C90.5078 85.0945 90.3125 85.5926 89.9568 85.9661C89.601 86.3397 89.113 86.559 88.5975 86.577H88.581Z" fill="#5C5C5C"/>
</svg>

<svg xmlns="http://www.w3.org/2000/svg" width="119" height="122" fill="none"><path fill="#5C5C5C" d="M102.09 82.442A13.74 13.74 0 0 0 88.453 70.84c-6.616 0-12.49 5.088-13.476 11.674-.41 2.653-.151 5.318-.197 7.974 0 .72-.155.917-.884.723a79.458 79.458 0 0 0-13.782-2.28 104.298 104.298 0 0 0-22.436.482 64.8 64.8 0 0 0-9.265 1.805c-.704.2-.92 0-.881-.73.059-1.144 0-2.3 0-3.441h-.023c0-1.065.043-2.133 0-3.195-.368-8.46-8.69-14.669-16.904-12.631A13.805 13.805 0 0 0 0 84.848a13.726 13.726 0 0 0 10.93 13.216c.752.165.893.43.88 1.105a289.97 289.97 0 0 0 0 6.764c.016 4.381 2.77 7.56 7.096 8.138.658.086.799.26.782.868a122.636 122.636 0 0 0 0 4.795c0 1.519.743 2.242 2.275 2.258 1.719 0 3.441-.029 5.16 0 1.177.03 1.913-.47 2.41-1.515.897-1.88 1.873-3.724 2.773-5.588a1.146 1.146 0 0 1 1.197-.778c11.76.019 23.52.019 35.28 0 .717 0 .987.295 1.276.854.924 1.913 1.89 3.806 2.823 5.713a2.179 2.179 0 0 0 2.15 1.314c1.801-.019 3.615 0 5.407 0 1.44-.019 2.175-.762 2.199-2.212.023-1.558.026-3.116 0-4.67 0-.641.03-.95.857-1.052 4.178-.519 6.985-3.75 7.018-7.957.02-2.301.033-4.602 0-6.903 0-.746.187-.986.963-1.163a13.696 13.696 0 0 0 10.613-15.593Zm-74.9 33.93c-.444 1.472-1.38 1.913-2.833 1.712-.533-.072-.75-.118-.776-.736-.131-3.224-.154-3.221 3.057-3.221h1.643c-.434.861-.87 1.518-1.091 2.245Zm51.504-1.578c-.042.444 0 .897 0 1.348 0 2.077 0 2.061-2.13 1.929a.827.827 0 0 1-.847-.522c-.352-.779-.766-1.529-1.15-2.301-.159-.329-.31-.658-.537-1.128 1.45 0 2.715.023 3.98 0 .517-.019.727.122.684.691v-.017Zm10.21-20.355c-1.707.092-2.341.74-2.344 2.449v8.854c0 2.939-1.555 4.444-4.5 4.447H20.33c-3.09 0-4.601-1.508-4.601-4.601V96.98c0-1.818-.605-2.456-2.37-2.548a9.86 9.86 0 0 1-9.423-10.136c.118-5.26 4.572-9.532 9.92-9.532a9.824 9.824 0 0 1 9.735 9.7c.04 2.458 0 4.93.023 7.378a.94.94 0 0 1-.72 1.059c-1.15.417-2.264.933-3.408 1.37-.628.243-.812.516-.388 1.144.546.809.808 2.058 1.541 2.426.733.368 1.74-.575 2.63-.914 5.785-2.176 11.79-3.353 17.916-3.97 6.61-.67 13.27-.67 19.879 0 6.784.693 13.433 1.972 19.72 4.752.73.329 1.095.276 1.375-.463a6.08 6.08 0 0 1 .473-.858c.986-1.778.986-1.778-.924-2.61-.075-.033-.154-.059-.23-.089-.904-.368-2.218-.492-2.61-1.163-.47-.799-.197-2.064-.167-3.123.056-2.169-.214-4.345.19-6.5.954-5.066 5.565-8.606 10.558-8.113a9.86 9.86 0 0 1 8.907 10.134 9.86 9.86 0 0 1-9.453 9.508v.007Z"/><path fill="#5C5C5C" d="M118.034 8.46c0-5.161-3.287-8.448-8.437-8.451H78.372c-7.747 0-15.494-.02-23.237 0a7.888 7.888 0 0 0-7.889 7.119c-.253 2.712-.25 2.63 2.43 2.745 1.228.049 1.56-.263 1.514-1.51-.098-2.832 1.545-4.423 4.359-4.423 7.993 0 15.983.02 23.977-.03 1.019 0 1.163.329 1.16 1.226-.026 12.49-.033 24.991-.02 37.503 0 2.63 0 2.544 2.673 2.652 1.16.046 1.288-.358 1.285-1.36-.033-12.911 0-25.822-.043-38.732 0-.97.148-1.299 1.223-1.292 7.95.056 15.901.03 23.852.033 2.906 0 4.454 1.561 4.454 4.486v97.267c0 2.935-1.538 4.487-4.454 4.49H95.148c-2.682 0-2.646 0-2.695 2.738 0 .897.131 1.341 1.16 1.219.852-.102 1.722.026 2.58-.036a1.257 1.257 0 0 1 1.41.841c.898 1.926 1.884 3.81 2.817 5.716a2.174 2.174 0 0 0 2.147 1.335c1.761-.023 3.526 0 5.288 0 1.594-.017 2.301-.733 2.32-2.341.02-1.607 0-3.198 0-4.795 0-.44 0-.684.609-.776 4.736-.723 7.267-3.701 7.267-8.48V57.035c0-16.189-.006-32.38-.017-48.576Zm-11.796 106.433c-.036.407 0 .818 0 1.226 0 2.084 0 2.064-2.107 1.972a.922.922 0 0 1-.917-.615c-.5-1.065-1.045-2.107-1.643-3.339 1.446 0 2.711.036 3.977 0 .614-.053.739.21.69.756Z"/><path fill="#5C5C5C" d="M14.45 41.327h13.765c1.052 0 2.406-.45 3.077.181.614.582.174 1.94.158 2.958 0 .658.197.861.828.802 1.009-.095 2.343.421 2.938-.203.5-.53.227-1.86.168-2.827-.05-.786.217-.944.956-.934 2.745.046 5.49.02 8.217.02h7.744c2.281 0 2.902-.713 2.705-3.01a14547.47 14547.47 0 0 1-1.883-22.16c-.151-1.788-.756-2.373-2.56-2.377H38.516c-1.009 0-2.343.44-2.938-.184-.5-.526-.227-1.857-.168-2.826.046-.783-.21-1.006-.956-.924-.963.105-2.245-.401-2.817.2-.48.507-.23 1.785-.161 2.709.069.923-.24 1.065-1.081 1.055-4.753-.043-9.506-.023-14.259-.017-1.538 0-2.274.622-2.392 2.025a5250.526 5250.526 0 0 0-1.923 22.771c-.135 1.995.572 2.738 2.63 2.741Zm1.519-5.051a1391.33 1391.33 0 0 0 1.482-17.874c.063-.776.493-.687.986-.687h7.987c7.25 0 14.502 0 21.752-.023.93 0 1.206.213 1.279 1.183.423 5.72.903 11.432 1.44 17.138.098 1.084-.119 1.423-1.292 1.406-5.404-.072-10.814-.032-16.22-.032-5.408 0-10.897-.023-16.343.026-.94.01-1.157-.21-1.081-1.137h.01ZM11.975 66.725c.592.591 1.867.085 2.834.19.769.089.956-.18.943-.937-.05-2.869-.03-5.738 0-8.604 0-2.584 1.643-4.237 4.207-4.237h62.45c2.497 0 4.138 1.643 4.157 4.164v6.761c0 2.876 0 2.847 2.939 2.863.782 0 1.035-.174 1.019-.986-.056-2.744-.02-5.492-.023-8.237 0-5.232-3.287-8.493-8.517-8.496H19.778c-4.513 0-7.921 3.428-7.967 7.924-.024 2.255-.024 4.51 0 6.765.003.956-.424 2.238.164 2.83Z"/><path fill="#5C5C5C" d="M43.276 62.935c0-1.933 0-1.933-1.88-1.933-2.055 0-2.055 0-2.055 2.002 0 1.932 0 1.932 1.877 1.932 2.058 0 2.058 0 2.058-2.001ZM60.867 61.002c-1.854 0-1.854 0-1.854 1.834 0 2.1 0 2.1 2.08 2.1 1.854 0 1.854 0 1.854-1.834.013-2.1.013-2.1-2.08-2.1ZM29.504 72.71c0 2.064 0 2.064 1.992 2.064 1.991 0 1.942 0 1.942-1.992 0-1.942 0-1.942-1.995-1.942-1.94 0-1.94 0-1.94 1.87ZM49.175 72.92c0 1.854 0 1.854 1.835 1.854 2.1 0 2.1 0 2.1-2.08 0-1.854 0-1.854-1.834-1.854-2.1 0-2.1 0-2.1 2.08ZM68.85 72.667c0 2.107 0 2.107 2.071 2.107 1.864 0 1.864 0 1.864-1.824 0-2.11 0-2.11-2.071-2.11-1.864 0-1.864 0-1.864 1.827ZM41.303 84.611c1.973 0 1.973 0 1.973-1.972s0-1.972-1.973-1.972c-1.972 0-1.972 0-1.972 1.972s.01 1.972 1.972 1.972ZM61.084 80.677c-2.071 0-2.071 0-2.071 2.11 0 1.824 0 1.824 1.864 1.824 2.07 0 2.07 0 2.07-2.107.013-1.827.013-1.827-1.863-1.827ZM13.754 78.712a5.916 5.916 0 0 0-5.887 5.972 5.916 5.916 0 0 0 5.916 5.824 5.916 5.916 0 0 0 5.887-5.972 5.916 5.916 0 0 0-5.917-5.824Zm.082 7.865a1.974 1.974 0 0 1-2.038-1.972 1.972 1.972 0 0 1 1.952-1.95 1.972 1.972 0 0 1 1.972 1.924 1.973 1.973 0 0 1-1.886 1.998ZM88.558 78.712a5.916 5.916 0 0 0-5.916 5.804 5.915 5.915 0 0 0 5.863 5.992 5.917 5.917 0 0 0 5.917-5.916 5.916 5.916 0 0 0-5.864-5.88Zm.023 7.865a1.972 1.972 0 0 1-2.025-1.998 1.972 1.972 0 0 1 3.945 0 1.972 1.972 0 0 1-1.904 1.998h-.016Z"/></svg>
